packages/foundations/assets/icons/functional/images/audio & video/fast_forward_10_12.svg

<svg width="12" height="12" viewBox="0 0 12 12" fill="none" xmlns="http://www.w3.org/2000/svg">
<g clip-path="url(#clip0_231_84)">
<path fill-rule="evenodd" clip-rule="evenodd" d="M2.4155 9.2965C2.8035 9.2965 3.0385 8.9665 3.0385 8.7205C3.0385 8.4385 2.5915 7.7565 2.5915 6.9935C2.5915 5.3715 3.8255 4.1495 5.3305 4.0085L4.9185 4.3955C4.8245 4.5135 4.7425 4.6655 4.7425 4.8185C4.7425 5.1245 5.0245 5.3945 5.3425 5.3945C5.50211 5.39594 5.65613 5.33577 5.7725 5.2265L7.0845 3.9055C7.19142 3.78978 7.24915 3.63701 7.2455 3.4795C7.24584 3.4071 7.23148 3.33537 7.20329 3.26868C7.1751 3.20199 7.13367 3.14171 7.0815 3.0915L5.7525 1.7515C5.69961 1.69596 5.63601 1.65173 5.56554 1.62148C5.49506 1.59123 5.41919 1.57558 5.3425 1.5755C5.0125 1.5755 4.7425 1.8455 4.7425 2.1755C4.74275 2.25216 4.75847 2.32799 4.78871 2.39844C4.81895 2.46888 4.86309 2.53251 4.9185 2.5855L5.1885 2.8555C4.15798 2.95048 3.2004 3.42798 2.50444 4.1939C1.80849 4.95982 1.42463 5.95862 1.4285 6.9935C1.4285 7.8275 1.7455 9.2965 2.4155 9.2965ZM4.9895 10.4245H6.1525C6.229 10.424 6.30465 10.4083 6.37508 10.3784C6.44552 10.3486 6.50934 10.305 6.56288 10.2504C6.61642 10.1957 6.65862 10.131 6.68704 10.06C6.71546 9.98896 6.72955 9.913 6.7285 9.8365C6.72771 9.68106 6.66561 9.53221 6.5557 9.4223C6.44578 9.31239 6.29693 9.25029 6.1415 9.2495V6.9345C6.1425 6.82986 6.11467 6.72697 6.06107 6.63709C6.00747 6.54722 5.93016 6.47383 5.83762 6.42498C5.74508 6.37613 5.64088 6.35369 5.53643 6.36014C5.43199 6.36658 5.33133 6.40165 5.2455 6.4615L4.6385 6.8665C4.55865 6.91857 4.49306 6.98973 4.44766 7.07355C4.40226 7.15736 4.37849 7.25118 4.3785 7.3465C4.3785 7.6865 4.6605 7.9445 4.9885 7.9335V9.2495C4.6605 9.2495 4.4135 9.5195 4.4135 9.8495C4.4135 10.1545 4.6605 10.4245 4.9895 10.4245ZM8.9495 6.2995C9.9135 6.2995 10.5715 6.9815 10.5715 8.0275V8.6855C10.5715 9.7425 9.8895 10.4245 8.8915 10.4245C7.9865 10.4245 7.3275 9.7315 7.3275 8.7085V7.9815C7.3275 6.9815 8.0095 6.3015 8.9495 6.3015V6.2995ZM8.9375 7.4725C8.6795 7.4785 8.5035 7.5455 8.5035 7.9685V8.7085C8.5035 9.1205 8.6325 9.2465 8.9495 9.2395C9.2315 9.2345 9.3845 9.0965 9.3845 8.6735V8.0155C9.3845 7.5215 9.1495 7.4665 8.9375 7.4725Z" fill="#1A1C1F"/>
</g>
<defs>
<clipPath id="clip0_231_84">
<rect width="12" height="12" fill="white"/>
</clipPath>
</defs>
</svg>

<svg xmlns="http://www.w3.org/2000/svg" width="12" height="12" fill="none"><g clip-path="url(#a)"><path fill="#1A1C1F" fill-rule="evenodd" d="M2.416 9.297c.388 0 .623-.33.623-.577 0-.282-.448-.964-.448-1.727 0-1.622 1.234-2.844 2.74-2.985l-.413.388c-.094.117-.176.27-.176.423 0 .306.282.575.6.575a.62.62 0 0 0 .43-.168l1.313-1.32a.61.61 0 0 0 .118-.637.5.5 0 0 0-.122-.178l-1.328-1.34a.57.57 0 0 0-.41-.175c-.33 0-.6.27-.6.6a.57.57 0 0 0 .175.41l.27.27a4.14 4.14 0 0 0-3.76 4.138c0 .833.318 2.303.988 2.303m2.573 1.127h1.164a.58.58 0 0 0 .576-.588.59.59 0 0 0-.588-.587V6.935a.57.57 0 0 0-.896-.473l-.607.406a.57.57 0 0 0-.26.48c0 .34.282.597.61.587v1.315c-.328 0-.575.27-.575.6 0 .306.247.575.576.575M8.95 6.3c.965 0 1.623.681 1.623 1.728v.657c0 1.057-.682 1.74-1.68 1.74-.905 0-1.564-.694-1.564-1.716v-.727c0-1 .681-1.68 1.622-1.68zm-.011 1.173c-.258.006-.434.072-.434.495v.74c0 .412.129.538.446.531.282-.005.434-.143.434-.566v-.658c0-.494-.235-.549-.447-.543" clip-rule="evenodd"/></g><defs><clipPath id="a"><path fill="#fff" d="M0 0h12v12H0z"/></clipPath></defs></svg>
